X:937
T:Easter Sunday
R:reel
C:Paddy O'Brien (Nenagh) (1922-1991)
D:L\'unasa: Kinnitty Sessions
Z:id:hn-reel-937
M:C|
L:1/8
K:Ador
EAAB cBcA | BG~G2 BcdB | AEAB cBce | dBGA BA~A2 |
EAAB cBce | dG (3Bcd gedg | eaaf g2ab |1 gedB ABAG :|2 gedB ABcd ||
|: eaag edBA | BG~G2 BcdB | ABcd eaab | g2gf gedg |
ea~a2 bg~g2 | aged BedB | AE~E2 GABd |1 gedB ABcd :|2 gedB ABAG ||

